app/client/src/assets/icons/blueprintjs/16px/ship.svg

<svg width="16" height="16" viewBox="0 0 16 16" fill="none" xmlns="http://www.w3.org/2000/svg">
<path fill-rule="evenodd" clip-rule="evenodd" d="M5.43922 0.803884L5.2 2H3C2.44772 2 2 2.44772 2 3V6.71429L0.920673 7.02267C0.405863 7.16975 0.0977781 7.6962 0.230293 8.21496C0.596169 9.64724 1.12681 11.5385 1.53875 12.4741C1.5405 12.4781 1.54228 12.482 1.54408 12.4859C1.36946 12.4951 1.18814 12.5 1 12.5C0.723858 12.5 0.5 12.7239 0.5 13C0.5 13.2761 0.723858 13.5 1 13.5C3.06663 13.5 4.41432 12.9566 5.16129 12.5834C5.71123 12.9561 6.66626 13.5 8 13.5C9.32037 13.5 10.2696 12.967 10.822 12.5947L10.8264 12.597C11.0218 12.7017 11.3069 12.837 11.6818 12.9709C12.4324 13.2389 13.5392 13.5 15 13.5C15.2761 13.5 15.5 13.2761 15.5 13C15.5 12.7239 15.2761 12.5 15 12.5C14.7054 12.5 14.4275 12.4884 14.1663 12.4679C14.3049 12.3515 14.4136 12.1959 14.4736 12.0104L15.6819 8.27039C15.8558 7.7321 15.5489 7.15684 15.005 7.00144L14 6.71429V3C14 2.44772 13.5523 2 13 2H10.8L10.5608 0.803884C10.4673 0.33646 10.0569 0 9.58019 0H6.4198C5.94312 0 5.5327 0.33646 5.43922 0.803884ZM4 6.14286L7 5.28571V4H4V6.14286ZM9 5.28571L12 6.14286V4H9V5.28571ZM4.96389 13.5593C5.13161 13.4694 5.33579 13.4825 5.49062 13.5931C5.94558 13.9181 6.76775 14.5 8 14.5C9.23225 14.5 10.0544 13.9181 10.5094 13.5931C10.6826 13.4694 10.915 13.469 11.0886 13.5917L11.0946 13.5958C11.1013 13.6002 11.1306 13.619 11.1306 13.619C11.1653 13.6406 11.2213 13.6741 11.2986 13.7155C11.4532 13.7983 11.6931 13.913 12.0182 14.0291C12.6676 14.2611 13.6608 14.5 15 14.5C15.2761 14.5 15.5 14.7239 15.5 15C15.5 15.2761 15.2761 15.5 15 15.5C13.5392 15.5 12.4324 15.2389 11.6818 14.9709C11.3069 14.837 11.0218 14.7017 10.8264 14.597L10.822 14.5947C10.2696 14.967 9.32037 15.5 8 15.5C6.66626 15.5 5.71123 14.9561 5.16129 14.5834C4.41432 14.9566 3.06663 15.5 1 15.5C0.723858 15.5 0.5 15.2761 0.5 15C0.5 14.7239 0.723858 14.5 1 14.5C3.12866 14.5 4.38356 13.8702 4.96389 13.5593Z" fill="#000000"/>
</svg>

<svg xmlns="http://www.w3.org/2000/svg" width="16" height="16"><path fill-rule="evenodd" d="M5.44.804 5.2 2H3a1 1 0 0 0-1 1v3.714l-1.08.309a.988.988 0 0 0-.69 1.192c.366 1.432.897 3.324 1.309 4.26a.644.644 0 0 0 .005.01c-.175.01-.356.015-.544.015a.5.5 0 0 0 0 1c2.067 0 3.414-.543 4.161-.917.55.373 1.505.917 2.839.917 1.32 0 2.27-.533 2.822-.905l.004.002c.196.105.48.24.856.374.75.268 1.857.529 3.318.529a.5.5 0 0 0 0-1c-.295 0-.572-.012-.834-.032a.995.995 0 0 0 .308-.458l1.208-3.74a1 1 0 0 0-.677-1.269L14 6.714V3a1 1 0 0 0-1-1h-2.2L10.56.804A1 1 0 0 0 9.58 0H6.42a1 1 0 0 0-.98.804ZM4 6.143l3-.857V4H4v2.143Zm5-.857 3 .857V4H9v1.286Zm-4.036 8.273a.5.5 0 0 1 .527.034c.455.325 1.277.907 2.509.907s2.054-.582 2.51-.907a.5.5 0 0 1 .579-.001l.006.004.036.023c.034.022.09.055.168.097.154.082.394.197.72.313.649.232 1.642.471 2.981.471a.5.5 0 0 1 0 1c-1.46 0-2.568-.261-3.318-.53a6.316 6.316 0 0 1-.856-.373l-.004-.002c-.552.372-1.502.905-2.822.905-1.334 0-2.289-.544-2.839-.917-.747.374-2.094.917-4.161.917a.5.5 0 0 1 0-1c2.129 0 3.384-.63 3.964-.94Z" clip-rule="evenodd"/></svg>
